X:1
T:Marquette, 87.87 D
T:Marquette, 87.87 D
T:Louis Piket, 1911
T:Public Domain Courtesy of the Cyber Hymnal™
C:Louis Piket, 1911
Z:Public Domain
Z:Courtesy of the Cyber Hymnal™
%%score ( 1 2 ) ( 3 4 )
L:1/8
Q:1/4=93
M:3/4
K:Db
V:1 treble 
V:2 treble 
V:3 bass 
V:4 bass 
V:1
 [DF][EG] |!<(! [FA]3!<)! [FA] [FA][FA] |!>(! [FB]2 [DF]2!>)! E[=DF] | %3
!<(! [EG]3 [EG]!<)! [DF][CG] | [DA]4 [DF][EG] |!<(! [FA]3!<)! [FA] [FA][FA] | %6
!>(! [FB]2 [DF]2!>)! D[CE] |!<(! A3!<)! [EG]!>(! [CF][CE]!>)! | [A,D]4 DD | [Fd]3 [Fd] [Fc][=EB] | %10
 [Fc]2 [FA]2 A=A |!<(! B3!<)! [EG] E!>(![DF] | [CE]4!>)! | [DF][EG] | [FA]3!<(! [FA] [FB]!<)![Gc] | %15
!>(! [Fd]2 [FA]2!>)! [FA][EG] |!<(! [DF][DG]!<)! [DE]3 [A,D] | [A,D]4 |] %18
V:2
 x2 | x6 | x4 E x | x6 | x6 | x6 | x4 D x | (E2 =D) x3 | x4 DD | x6 | x6 | (DD D)E x2 | x4 | x2 | %14
 x6 | x6 | x6 | x4 |] %18
V:3
 z2 | ([D,D][D,D] [D,D])[D,D] [D,D][D,D] | [D,D]2 [D,A,]2 G,F, | %3
 ([E,B,][D,B,] [C,A,])[A,,A,] [D,A,][E,A,] | [F,A,]4 z2 | ([D,D][D,D] [D,D])[D,D] [D,D][D,D] | %6
 [D,D]2 [D,A,]2 G,F, | (B,B, [F,B,])[G,B,] A,[A,,G,] | [D,F,]4 z2 | %9
 ([B,,B,][B,,B,] [B,,B,])B, [A,C][=G,C] | [A,C]2 [F,C]2 [F,C][F,C] | [G,B,]3 [G,B,] [C,A,][D,A,] | %12
 ([A,,A,]2 A,2) | z2 | ([D,D][D,D] [D,D])[D,D] [D,A,][D,A,] | [D,A,]2 [D,D]2 [F,C][G,B,] | %16
 A,A, [A,,G,]3 [D,F,] | [D,F,]4 |] %18
V:4
 x2 | x6 | x6 | x6 | x6 | x6 | x6 | E,2 x A, x2 | x6 | x3 B, x2 | x6 | x6 | x2 A,2 | x2 | x6 | x6 | %16
 A,A, x4 | x4 |] %18

